X:504
T:Bloomsbury Market. (p)1703.PLFD.504
M:4/4
L:1/8
Q:1/2=80
S:Playford, Dancing Master,12th Ed.,1703.
O:England
Z:Chris Partington.
K:G
d2|dBAGG2D2|DEDB,D3D|DGGAB2Bc|d2cBA3B|
cdef efgB|BcdB AFD2|e3d efgB|1cBAGG2:|2cBAGG4|
|:g2(g/a/b)g3d|efgBA3G|DGGAB2AG|DGGAB2AG|
d3e dedB|ABcde3d|e3defgB|cBAGG4:|
